src/assets/img/svg/burger-menu-icons/pinterest.svg

<svg width="10" height="13" viewBox="0 0 10 13" fill="none" xmlns="http://www.w3.org/2000/svg">
    <path
            d="M5.16304 0.564453C1.88021 0.56494 0.135254 2.61551 0.135254 4.85143C0.135254 5.88815 0.729546 7.18174 1.68111 7.59185C1.95256 7.71104 1.91663 7.56558 2.15016 6.69476C2.16862 6.62227 2.15914 6.55951 2.09926 6.49189C0.739027 4.95797 1.8338 1.80452 4.96893 1.80452C9.50621 1.80452 8.65843 7.92558 5.75833 7.92558C5.01085 7.92558 4.45398 7.35347 4.63012 6.64562C4.84369 5.80253 5.26184 4.89619 5.26184 4.28856C5.26184 2.75708 2.92159 2.98427 2.92159 5.01343C2.92159 5.64052 3.14913 6.06377 3.14913 6.06377C3.14913 6.06377 2.39616 9.02944 2.25644 9.58355C2.01992 10.5215 2.28838 12.0399 2.31183 12.1707C2.3263 12.2427 2.40913 12.2656 2.45554 12.2062C2.52989 12.1114 3.44004 10.8455 3.69502 9.93042C3.78783 9.59718 4.16856 8.24472 4.16856 8.24472C4.41955 8.68646 5.14308 9.05619 5.91401 9.05619C8.20735 9.05619 9.86498 7.09076 9.86498 4.65197C9.857 2.31388 7.80467 0.564453 5.16304 0.564453V0.564453Z"
            fill="#D0CFCF"/>
</svg>

<svg width="10" height="13" fill="none" xmlns="http://www.w3.org/2000/svg"><path d="M5.163.564C1.88.564.135 2.616.135 4.851c0 1.037.595 2.33 1.546 2.74.272.12.236-.025.47-.896a.203.203 0 00-.052-.203C.74 4.958 1.834 1.805 4.97 1.805c4.537 0 3.69 6.12.79 6.12-.748 0-1.305-.572-1.129-1.28.214-.842.632-1.749.632-2.356 0-1.532-2.34-1.305-2.34.724 0 .628.227 1.05.227 1.05l-.893 3.52c-.236.938.032 2.457.056 2.588.014.072.097.095.144.035.074-.095.984-1.36 1.239-2.276l.474-1.685c.25.441.974.811 1.745.811 2.293 0 3.951-1.965 3.951-4.404C9.857 2.314 7.805.564 5.163.564z" fill="#D0CFCF"/></svg>
